X:1
T:Title
%%score { 1 | 2 }
L:1/8
Q:1/4=86
M:2/4
K:G
V:1 treble nm="Grand Piano"
V:2 bass 
V:1
 [Bd]2 [_B^c][=Bd] | [ce][Bd] [GB]2 | [Bd]2 [Ac][GB] | [FA]4 | [FA]2 [FA][FB] | [Ac][^GB] [Ac]2 | %6
w: Wm.~J.~Kirkpatrick * *||||||
 [ce]2 [Bd][Ac] | [GB]4 | [Bd]2 [dg][df] | [cf]>[ce] [ce]2 | [^ce]2 [cf][ce] | [Ae]>[Ad] [Ad]2 | %12
w: ||||||
 [Bd]2 [dg]>d | [cf][ce] [ce]2 | [Bd]2 [cd]>[cd] | [Bd]4 |] %16
w: ||||
V:2
 [G,,G,]2 [G,,G,][G,,G,] | [G,,G,][G,,G,] [G,,D,]2 | [D,G,]2 [D,F,][D,G,] | D,4 | D,2 D,D, | %5
 [D,F,][D,=F,] [D,^F,]2 | [D,F,]2 [D,F,][D,F,] | [G,,D,]4 | G,2 [B,,G,][B,,G,] | %9
 [C,G,]>[C,G,] [C,G,]2 | [A,,G,]2 [A,,A,][A,,G,] | [D,G,]>[D,F,] [D,F,]2 | G,2 [B,,G,]>[B,,G,] | %13
 [C,G,][C,G,] [C,G,]2 | [D,G,]2 [D,A,]>[D,A,] | [G,,G,]4 |] %16

